X: 124
M:4/4
L:1/8
Q:160
K:Dm
|: f>fg>a b2 ab|g>ga>g ^f2 de/2f/2|gggf =e2 cd/2e/2|fdc>B B4| f>fg>a b2 ab|g>ga>g ^f2 de/2f/2|gggf =e2 cd/2e/2|fdc>B B4:|
M:6/8
|: dfd c>BA|B2 F B2 c |dfd c>BA|B3 d3|dfd c>BA|B2 F B2 c |dfd c>BA|B3 d3:|
|: dfd f3 | dfd f3| g>ab d>ed| c2 B B3|dfd f3 | dfd f3| g>ab d>ed| c2 B B3:|

